static/assets/images/exchanges/camelot.svg

<svg width="170" height="256" viewBox="0 0 170 256" fill="none" xmlns="http://www.w3.org/2000/svg">
<path d="M169.217 103.801C148.83 92.4433 125.92 85.066 101.541 82.7189V130.462L84.6225 137.733L67.7037 130.462V82.7189C43.9325 85.003 20.891 92.1808 0.028306 103.801C0.028306 103.801 -4.01712 215.316 84.6166 256H84.6284C173.262 215.322 169.217 103.801 169.217 103.801ZM116.998 157.035L85.6899 170.486L100.881 170.639C101.241 170.639 101.5 212.45 101.423 212.556L84.6166 237.695L67.6978 212.391C67.6978 212.391 67.9926 170.315 68.3524 170.315L83.4903 170.468L33.8542 149.144L52.2355 141.248L84.3513 155.047C84.5164 155.118 84.7051 155.118 84.8643 155.047L116.98 141.248L135.361 149.144L116.98 157.04L116.998 157.035Z" fill="#F58B00"/>
<path d="M135.379 164.931L116.998 157.035L84.882 170.834C84.7169 170.905 84.5282 170.905 84.369 170.834L52.2532 157.035L33.8719 164.931L84.6284 186.738L135.385 164.931H135.379Z" fill="#FFF3D4"/>
<path d="M135.379 133.293C135.379 133.293 116.579 125.214 101.541 118.756V130.456L84.6225 137.727L67.7037 130.456V118.756L35.2636 132.697C34.7388 132.921 34.7388 133.67 35.2636 133.9L84.3631 154.994C84.5282 155.065 84.7169 155.065 84.8761 154.994L135.373 133.299L135.379 133.293Z" fill="#FFF3D4"/>
<path d="M142.367 64.1194C127.495 59.6494 111.897 56.8542 95.7976 55.9519L91.9527 21.2827C91.8583 20.4099 92.1355 19.5372 92.7252 18.8885C94.5651 16.8835 95.6855 14.2121 95.6855 11.2753C95.6855 5.04794 90.6376 0 84.4102 0H84.3513C78.1239 0 73.076 5.04794 73.076 11.2753C73.076 14.2121 74.1964 16.8835 76.0363 18.8885C76.3295 19.2087 76.5502 19.5883 76.6835 20.0014C76.8168 20.4146 76.8596 20.8516 76.8089 21.2827L72.9639 55.9519C56.8589 56.8542 41.2669 59.6435 26.3943 64.1194L33.465 80.195L33.9662 80.0358C49.8531 75.3888 67.1081 73.0713 84.369 73.0713C101.636 73.0713 118.903 75.3888 134.795 80.0358L135.308 80.1596L142.367 64.1194Z" fill="#FFF3D4"/>
</svg>

<svg xmlns="http://www.w3.org/2000/svg" fill="none" viewBox="0 0 170 256"><path fill="#F58B00" d="M169.217 103.801a172.9 172.9 0 0 0-67.676-21.082v47.743l-16.918 7.271-16.92-7.271V82.719A173.1 173.1 0 0 0 .029 103.8S-4.017 215.316 84.617 256h.011c88.634-40.678 84.589-152.199 84.589-152.199m-52.219 53.234L85.69 170.486l15.191.153c.36 0 .619 41.811.542 41.917l-16.806 25.139-16.92-25.304s.296-42.076.655-42.076l15.138.153-49.636-21.324 18.382-7.896 32.115 13.799a.64.64 0 0 0 .513 0l32.116-13.799 18.381 7.896-18.381 7.896z"/><path fill="#FFF3D4" d="m135.379 164.931-18.381-7.896-32.116 13.799a.64.64 0 0 1-.513 0l-32.116-13.799-18.381 7.896 50.756 21.807 50.757-21.807zm0-31.638s-18.8-8.079-33.838-14.537v11.7l-16.918 7.271-16.92-7.271v-11.7l-32.44 13.941c-.524.224-.524.973 0 1.203l49.1 21.094a.64.64 0 0 0 .513 0l50.497-21.695zm6.988-69.173a200.7 200.7 0 0 0-46.57-8.168l-3.844-34.67a3.07 3.07 0 0 1 .772-2.393 11.22 11.22 0 0 0 2.96-7.614C95.686 5.048 90.639 0 84.41 0h-.059c-6.227 0-11.275 5.048-11.275 11.275 0 2.937 1.12 5.609 2.96 7.614a3.02 3.02 0 0 1 .773 2.394l-3.845 34.669a200.3 200.3 0 0 0-46.57 8.167l7.071 16.076.501-.16c15.887-4.646 33.142-6.964 50.403-6.964 17.267 0 34.534 2.318 50.426 6.965l.513.124z"/></svg>
